X:2
T:Japanese Humbug
C:Armand Aromin
M: 6/8
L:1/8
H:3/11/04
K:G
Acd dcA | dcA G3 | Acd cde | gfe d3 |
Acd dcA | dcA GFG | Bdf ede | fgf e3 :|
|: afe d3 | dBA G3 | GED D3 | DEG G3 :|
|: afe dBA | FED B,A,G, | G,A,B, DEF |
1 A4 :| 2 B4 z2|
